!!!COM: Palestrina, Giovanni Perluigi da
!!!OPR: Missa Quando lieta sperai
!!!OMD: Credo
!!!OTL: Et incarnatus
**kern	**kern	**kern	**kern	**kern
*Ibass	*Ibarit	*Itenor	*Icalto	*Icant
!Bassus	!Baritone	!Tenor	!Altus	!Cantus
*clefF4	*clefF4	*clefGv2	*clefG2	*clefG2
*k[]	*k[]	*k[]	*k[]	*k[]
*A:aeo	*A:aeo	*A:aeo	*A:aeo	*A:aeo
*M4/2	*M4/2	*M4/2	*M4/2	*M4/2
=74	=74	=74	=74	=74
0r	1E	1B	1e	1g#
.	2E	2B	2e	2g#
.	2E	2B	2e	2g#
=75	=75	=75	=75	=75
1AA	0A	0c	[0e	0a
2AA	.	.	.	.
2AA	.	.	.	.
=76	=76	=76	=76	=76
1E	2.G	1B	1e]	1b
.	4F	.	.	.
1C	4E	1e	1g	1cc
.	4C	.	.	.
.	[2c	.	.	.
=77	=77	=77	=77	=77
0G	2c]	2d	1g	1dd
.	4B	2G	.	.
.	4A	.	.	.
.	1B	[1d	1g	2r
.	.	.	.	2d
=78	=78	=78	=78	=78
0r	1A	2d]	2f	1a
.	.	2c#	2e	.
.	1r	1d	1f	2a
.	.	.	.	2a
=79	=79	=79	=79	=79
1E	2r	1B	1e	1g#
.	2B	.	.	.
2A	2c#	1A	[1e	1a
[2A	[2c#	.	.	.
=80	=80	=80	=80	=80
2A]	2c#]	2r	1e]	0r
2G#	2B	2E	.	.
1A	[1c	2e	2r	.
.	.	[2e	2e	.
=81	=81	=81	=81	=81
1F	2c]	2e]	2a	0r
.	4B	2d	1a	.
.	4A	.	.	.
1E	2B	1e	.	.
.	2B	.	2g#	.
=82	=82	=82	=82	=82
0r	1A	1c#	2.a	1e
.	.	.	4g	.
.	2r	2.d	2.f	2a
.	2D	.	.	[2a
.	.	4c	4e	.
=83	=83	=83	=83	=83
0r	2d	1B	1d	2a]
.	1d	.	.	2g#
.	.	1A	1e	[1a
.	2c#	.	.	.
=84	=84	=84	=84	=84
1r	2d	1r	1f	2a]
.	2d	.	.	2a
1E	2B	2r	1e	1g
.	[2B	2e	.	.
=85	=85	=85	=85	=85
1E	2B]	4g	2r	1b
.	.	4f	.	.
.	1G	4e	2g	.
.	.	4d	.	.
1C	.	2e	2g	1cc
.	[2A	2e	2c	.
=86	=86	=86	=86	=86
0D	2A]	2.d	2.f	2a
.	2B	.	.	2.dd
.	.	4e	4e	.
.	2A	4f	2d	.
.	.	4e	.	4cc
.	[2d	4d	2f	4b
.	.	4c	.	4a
=87	=87	=87	=87	=87
0E	2d]	2B	1e	2g#
.	2c	2A	.	1a
.	2B	1B	2r	.
.	[2E	.	[2e	2g#
=88	=88	=88	=88	=88
1AA	2E]	1c	2e]	0a
.	2.A	.	2c	.
2D	.	[1A	2d	.
.	4G	.	.	.
2C#	2E	.	[2e	.
=89	=89	=89	=89	=89
1D	1F	1A]	2e]	2r
.	.	.	2d	1a
1r	[1E	[1B	[1e	.
.	.	.	.	2g
=90	=90	=90	=90	=90
1r	1E]	1B]	1e]	1g
2r	1r	1A	[1c	2f
[2A	.	.	.	4e
.	.	.	.	4d
=91	=91	=91	=91	=91
2A]	2r	0r	2c]	1e
2G	1e	.	2B	.
1G	.	.	1B	1r
.	2d	.	.	.
=92	=92	=92	=92	=92
1F	2d	2r	4A	0r
.	.	.	4B	.
.	1c	1a	4c	.
.	.	.	4d	.
[1E	.	.	[1e	.
.	4B	2g	.	.
.	4A	.	.	.
=93	=93	=93	=93	=93
2E]	1B	1g	1e]	0r
2E	.	.	.	.
2D	2d	2f	1r	.
2E	2c	[2e	.	.
=94	=94	=94	=94	=94
1F	2A	2e]	2r	0r
.	2A	2d	1a	.
[1E	1e	2c	.	.
.	.	4B	2g	.
.	.	4A	.	.
=95	=95	=95	=95	=95
1E]	1e	2B	1g	1.b
.	.	2B	.	.
1r	2r	1d	2.f	.
.	[2d	.	.	2a
.	.	.	4g	.
=96	=96	=96	=96	=96
0r	2d]	1A	4a	1a
.	.	.	4b	.
.	2c	.	2.cc	.
.	2A	2.e	.	1a
.	.	.	4b	.
.	2A	.	[2a	.
.	.	4e	.	.
=97	=97	=97	=97	=97
0r	1B	1d	2a]	1dd
.	.	.	2g#	.
.	2.A	2e	1a	[1cc
.	.	[2f	.	.
.	4B	.	.	.
=98	=98	=98	=98	=98
1r	1c	2f]	1g	0cc]
.	.	2e	.	.
1A	2r	2r	[1a	.
.	2A	2e	.	.
=99	=99	=99	=99	=99
1.A	1.c	2f	1a]	0r
.	.	2e	.	.
.	.	2f	1r	.
2G	2B	[2e	.	.
=100	=100	=100	=100	=100
2F	2A	2e]	0r	0r
2G	2B	1d	.	.
[1E	2G	.	.	.
.	[2A	2c	.	.
=101	=101	=101	=101	=101
1E]	2A]	1B	1e	1b
.	2G#	.	.	.
1AA	1A	1e	1c	2cc
.	.	.	.	[2cc
=102	=102	=102	=102	=102
0r	2.E	2e	1.g	2cc]
.	.	1e	.	2b
.	4E	.	.	.
.	2C	.	.	2cc
.	2G	2d	2g	[2b
=103	=103	=103	=103	=103
0r	2A	2c#	2e	4b]
.	.	.	.	4a
.	2D	2d	2f	1a
.	1E	1B	1e	.
.	.	.	.	2g#
*-	*-	*-	*-	*-
!!!CDT: 1525/^1526/-1594/2/2
!!!OCY: Italia
!!!AGN: Mass (Parody)
!!!AST: renaissance, vocal
!!!ASW: Madrigal 1548 (anon (Rore, Morales))
!!!PWK: Masses, Book 11
!!!RNB: Cadence finals: G,E
!!!YOR: Le Opere Complete, v. 28, p. 73
!!!YOO: Rome, Italy: Fratelli Scalera
!!!END: 1992//
!!!EED: John Miller
!!!YEC: Copyright 2000, John Miller
!!!YEN: United States of America
!!!YEM: Rights to all derivative electronic formats reserved.
!!!YEM: Refer to licensing agreement for further details.
!!!YEM: This file must be accompanied by the licensing agreement.
!!!YEM: A copy of the licensing agreement may be found at http://www.music-cog.ohio-state.edu/HumdrumDatabases/Palestrina/license.txt
!!!EMD: converted to Humdrum by Bret Aarden
